images/html.svg

<svg width="120" height="120" viewBox="0 0 120 120" fill="none" xmlns="http://www.w3.org/2000/svg">
<path fill-rule="evenodd" clip-rule="evenodd" d="M16 14H104L96.3966 101.532L60 111L23.9287 101.532L16 14Z" fill="#D1D2D6"/>
<path fill-rule="evenodd" clip-rule="evenodd" d="M34.4834 32.1582H85.6064V41.8582H45.0714L46.0403 53.9191H84.7707L82.6975 86.5043L60.0592 92.4055L39.0776 86.4689L37.572 72.2489L47.2963 71.2356L48.1118 78.9383L60.1651 82.3487L73.3839 78.9029L74.3563 63.6191H37.0107L34.4834 32.1582Z" fill="#F5F6F7"/>
</svg>

<svg width="120" height="120" fill="none" xmlns="http://www.w3.org/2000/svg"><path fill-rule="evenodd" clip-rule="evenodd" d="M16 14h88l-7.603 87.532L60 111l-36.071-9.468L16 14z" fill="#D1D2D6"/><path fill-rule="evenodd" clip-rule="evenodd" d="M34.483 32.158h51.123v9.7H45.071l.97 12.061h38.73l-2.073 32.585-22.639 5.901-20.981-5.936-1.506-14.22 9.724-1.013.816 7.702 12.053 3.41 13.219-3.445.972-15.284H37.011l-2.528-31.46z" fill="#F5F6F7"/></svg>
